X: 192
T: His Customs I Adopted
C: Teton Sioux band 1911-1914
N: Derived from sioux187.krn
O: South Dakota, U.S.A.
N: Teton Sioux Music by Frances Densmore, 1918
Z: transcribed to **kern format by Craig Sapp
L: 1/8
M: 2/4
Q: 1/4=58
K: F clef=bass
%%linebreak <none>
F2G3/ G/ [I:setbarnb 2]| 
F7/F/ | 
D4 | 
D2F3/ G/ | 
F D (3F D F | 
C4 | 
C2D3/ D/ | 
D C (3D C C | 
A,4 | 
A,2C3/ D/ | 
C A, (3B, A, A, ||  
[M:3/4]F,2F,2(3C F, A, | 
F,2C,2(3D D C | 
C> A,D2D/ F3/ ||  
[M:2/4]F< F F3/ D/ | 
D< D (3(F D) C | 
C4 | 
C> C D3/ D/ ||  
[M:3/4](D C) (3(D C) C A,3/ A,/ ||  
[M:2/4]A,2C3/ C/ | 
C< A, (3B, A, A, ||  
[M:3/4]F,2F,2(3C F, A, | 
F,2z4 |]  



